ukui-icon-theme-default/scalable/actions/focus-legacy-systray-symbolic.svg

<?xml version="1.0" encoding="iso-8859-1"?>
<!-- Generator: Adobe Illustrator 24.0.0, SVG Export Plug-In . SVG Version: 6.00 Build 0)  -->
<svg version="1.1" id="f" xmlns="http://www.w3.org/2000/svg" xmlns:xlink="http://www.w3.org/1999/xlink" x="0px" y="0px"
	 viewBox="0 0 16 16" style="enable-background:new 0 0 16 16;" xml:space="preserve">
<title>16</title>
<g id="_16">
	<g id="path10873">
		<path style="fill:#808080;" d="M8.94,3L8.94,3C9.521,3.011,9.989,3.479,10,4.06V13H2V3H8.94 M8.94,2H1v12h10V4.06
			C10.989,2.927,10.073,2.011,8.94,2z"/>
	</g>
	<path id="path10910" style="fill:#808080;" d="M11,2c0.685,0.424,1.072,1.198,1,2v10h1V4C13,2.72,11,2,11,2z"/>
	<path id="path10912" style="fill:#808080;" d="M13,2c0.685,0.424,1.072,1.198,1,2v10h1V4C15,2.72,13,2,13,2z"/>
	<path style="fill:#808080;" d="M5.5,8L4.29,6.79C4.105,6.604,4.001,6.352,4,6.09V5h1.09c0.262,0.001,0.514,0.105,0.7,0.29L8.5,8
		l-2.72,2.71c-0.186,0.185-0.438,0.289-0.7,0.29H4V9.91c0.001-0.262,0.105-0.514,0.29-0.7L5.5,8z"/>
</g>
</svg>

<svg id="f" xmlns="http://www.w3.org/2000/svg" viewBox="0 0 16 16"><defs><style>.cls-1{fill:gray;}</style></defs><title>16</title><g id="_16" data-name="16"><g id="path10873"><path class="cls-1" d="M8.94,3h0A1.08,1.08,0,0,1,10,4.06L10,13H2V3H8.94m0-1H1V14H11l0-9.94A2.08,2.08,0,0,0,8.94,2Z"/></g><path id="path10910" class="cls-1" d="M11,2a2.13,2.13,0,0,1,1,2V14h1V4C13,2.72,11,2,11,2Z"/><path id="path10912" class="cls-1" d="M13,2a2.13,2.13,0,0,1,1,2V14h1V4C15,2.72,13,2,13,2Z"/><path class="cls-1" d="M5.5,8,4.29,6.79A1,1,0,0,1,4,6.09V5H5.09a1,1,0,0,1,.7.29L8.5,8,5.78,10.71a1,1,0,0,1-.7.29H4V9.91a1,1,0,0,1,.29-.7Z"/></g></svg>
